assets/img/braze_icons/align-bottom-02.svg

<svg fill="none" height="24" viewBox="0 0 24 24" width="24" xmlns="http://www.w3.org/2000/svg"><g clip-rule="evenodd" fill="#801ed7" fill-rule="evenodd"><path d="m16.968 6h.064c.4386-.00001.8171-.00002 1.1304.02135.3298.0225.6597.07201.9857.20701.735.30448 1.3191.88851 1.6235 1.62359.135.32593.1845.65584.2071.98567.0213.31326.0213.69174.0213 1.13039v8.06399c0 .4386 0 .8171-.0213 1.1304-.0226.3298-.0721.6597-.2071.9857-.3044.735-.8885 1.3191-1.6235 1.6235-.326.135-.6559.1845-.9857.2071-.3133.0213-.6918.0213-1.1304.0213h-.064c-.4386 0-.8171 0-1.1304-.0213-.3298-.0226-.6597-.0721-.9856-.2071-.7351-.3044-1.3192-.8885-1.6236-1.6235-.135-.326-.1845-.6559-.207-.9857-.0214-.3133-.0214-.6918-.0214-1.1304v-8.06398c0-.43865 0-.81714.0214-1.1304.0225-.32983.072-.65974.207-.98567.3044-.73508.8885-1.31911 1.6236-1.62359.3259-.135.6558-.18451.9856-.20701.3133-.02137.6918-.02136 1.1304-.02135z"/><path d="m6.96802 2h.06396c.43866-.00001.81715-.00002 1.1304.02135.32983.02251.65974.07201.98567.20701.73509.30448 1.31915.88851 1.62355 1.62359.135.32593.1845.65584.2071.98567.0213.31326.0213.69174.0213 1.13039v12.06399c0 .4386 0 .8171-.0213 1.1304-.0226.3298-.0721.6597-.2071.9857-.3044.735-.88846 1.3191-1.62355 1.6235-.32593.135-.65584.1845-.98567.2071-.31325.0213-.69174.0213-1.13039.0213h-.06398c-.43865 0-.81713 0-1.13039-.0213-.32983-.0226-.65974-.0721-.98567-.2071-.73508-.3044-1.31911-.8885-1.62359-1.6235-.135-.326-.1845-.6559-.20701-.9857-.02137-.3133-.02136-.6918-.02135-1.1304v-12.06398c-.00001-.43865-.00002-.81714.02135-1.1304.02251-.32983.07201-.65974.20701-.98567.30448-.73508.88851-1.31911 1.62359-1.62359.32593-.135.65584-.1845.98567-.20701.31326-.02137.69175-.02136 1.1304-.02135z"/></g></svg>

<svg width="24" height="24" viewBox="0 0 24 24" fill="none" xmlns="http://www.w3.org/2000/svg">
<path fill-rule="evenodd" clip-rule="evenodd" d="M16.968 6H17.032C17.4706 5.99999 17.8491 5.99998 18.1624 6.02135C18.4922 6.04385 18.8221 6.09336 19.1481 6.22836C19.8831 6.53284 20.4672 7.11687 20.7716 7.85195C20.9066 8.17788 20.9561 8.50779 20.9787 8.83762C21 9.15088 21 9.52936 21 9.96801V18.032C21 18.4706 21 18.8491 20.9787 19.1624C20.9561 19.4922 20.9066 19.8221 20.7716 20.1481C20.4672 20.8831 19.8831 21.4672 19.1481 21.7716C18.8221 21.9066 18.4922 21.9561 18.1624 21.9787C17.8491 22 17.4706 22 17.032 22H16.968C16.5294 22 16.1509 22 15.8376 21.9787C15.5078 21.9561 15.1779 21.9066 14.852 21.7716C14.1169 21.4672 13.5328 20.8831 13.2284 20.1481C13.0934 19.8221 13.0439 19.4922 13.0214 19.1624C13 18.8491 13 18.4706 13 18.032V9.96802C13 9.52937 13 9.15088 13.0214 8.83762C13.0439 8.50779 13.0934 8.17788 13.2284 7.85195C13.5328 7.11687 14.1169 6.53284 14.852 6.22836C15.1779 6.09336 15.5078 6.04385 15.8376 6.02135C16.1509 5.99998 16.5294 5.99999 16.968 6Z" fill="#801ED7"/>
<path fill-rule="evenodd" clip-rule="evenodd" d="M6.96802 2H7.03198C7.47064 1.99999 7.84913 1.99998 8.16238 2.02135C8.49221 2.04386 8.82212 2.09336 9.14805 2.22836C9.88314 2.53284 10.4672 3.11687 10.7716 3.85195C10.9066 4.17788 10.9561 4.50779 10.9787 4.83762C11 5.15088 11 5.52936 11 5.96801V18.032C11 18.4706 11 18.8491 10.9787 19.1624C10.9561 19.4922 10.9066 19.8221 10.7716 20.1481C10.4672 20.8831 9.88314 21.4672 9.14805 21.7716C8.82212 21.9066 8.49221 21.9561 8.16238 21.9787C7.84913 22 7.47064 22 7.03199 22H6.96801C6.52936 22 6.15088 22 5.83762 21.9787C5.50779 21.9561 5.17788 21.9066 4.85195 21.7716C4.11687 21.4672 3.53284 20.8831 3.22836 20.1481C3.09336 19.8221 3.04386 19.4922 3.02135 19.1624C2.99998 18.8491 2.99999 18.4706 3 18.032V5.96802C2.99999 5.52937 2.99998 5.15088 3.02135 4.83762C3.04386 4.50779 3.09336 4.17788 3.22836 3.85195C3.53284 3.11687 4.11687 2.53284 4.85195 2.22836C5.17788 2.09336 5.50779 2.04386 5.83762 2.02135C6.15088 1.99998 6.52937 1.99999 6.96802 2Z" fill="#801ED7"/>
</svg>
